symbols/web/videocam/materialsymbolsrounded/videocam_wght600grad200fill1_24px.svg

<svg xmlns="http://www.w3.org/2000/svg" height="24" width="24"><path d="M3.875 20.975q-1.275 0-2.175-.9-.9-.9-.9-2.175V6.1q0-1.275.9-2.175.9-.9 2.175-.9h11.8q1.275 0 2.175.9.9.9.9 2.175v4.1l3.125-3.15q.375-.35.85-.15.475.2.475.7v8.8q0 .5-.475.7-.475.2-.85-.15L18.75 13.8v4.1q0 1.275-.9 2.175-.9.9-2.175.9Z"/></svg>

<svg xmlns="http://www.w3.org/2000/svg" height="24" width="24"><path d="M3.875 20.975Q2.6 20.975 1.7 20.075Q0.8 19.175 0.8 17.9V6.1Q0.8 4.825 1.7 3.925Q2.6 3.025 3.875 3.025H15.675Q16.95 3.025 17.85 3.925Q18.75 4.825 18.75 6.1V10.2L21.875 7.05Q22.25 6.7 22.725 6.9Q23.2 7.1 23.2 7.6V16.4Q23.2 16.9 22.725 17.1Q22.25 17.3 21.875 16.95L18.75 13.8V17.9Q18.75 19.175 17.85 20.075Q16.95 20.975 15.675 20.975Z"/></svg>
